X:1
%%textfont Times-Roman
%%scale 5.0
T: Jenny Lind Polka - G Major
%%scale 1.0
K:G
L:1/4
M:4/4
%%multicol start
%%rightmargin 11.5cm
"A part"d/c/|:Bdce|dbb/^a/b|
M:4/4
"B part"gee/g/f/e/|dBB/^A/B|
%%multicol new
%%textfont Monaco
%%leftmargin 11.5cm
%%scale 1.3
%%begintext

|: DG | D | A | D :|
|: C  | G | D | G :|
%%endtext
%%multicol end

